!!!COM: Fux, Johann Joseph
!!!OMD: Gradus ad Parnassum Exercise
!!!YEC: CC0 1.0 Universal (Public Domain). Mark Gotham and FourScoreAndMore.org waive all rights to this document.
**kern	**kern
*part2	*part1
*staff2	*staff1
*I"2	*I"1
*I'Pno	*I'Pno
!!LO:LB:g=z
*clefGv2	*clefG2
*k[]	*k[]
!!LO:TX:omd:t=
*M2/2	*M2/2
=368	=368
!	!LO:TX:a:t=Fig. 77; Species&colon; 4; Modal final&colon; f; Cantus firmus&colon; Lower
1F	2r
.	[2f/
=369	=369
1G	2f/]
.	[2e/
=370	=370
1A	2e/]
.	[2c/
=371	=371
1F	2c/]
.	[2f/
=372	=372
1D	2f/]
.	[2a/
=373	=373
1E	2a/]
.	[2g/
!!LO:LB:g=z
=374	=374
1F	2g/]
.	[2f/
=375	=375
1c	2f/]
.	[2e/
=376	=376
1A	2e/]
.	[2a/
=377	=377
1F	2a/]
.	[2f/
=378	=378
1G	2f/]
.	2e/
=379	=379
1F	1f
==	==
*-	*-
!!!software: music21 v.9.7.1
!!!software: music21 v.9.7.1
!!!software: MuseScore 3.4.2
!!!RDF**kern: > = above
!!!RDF**kern: < = below
